svgs/light/globe.svg

<svg xmlns="http://www.w3.org/2000/svg" viewBox="0 0 512 512"><!--! Font Awesome Pro 6.0.0-alpha3 by @fontawesome - https://fontawesome.com License - https://fontawesome.com/license (Commercial License) --><path d="M256 16C123.5 16 16 123.5 16 256s107.5 240 240 240s239.1-107.5 239.1-240S388.5 16 256 16zM464 256c0 22.34-3.633 43.82-10.18 64h-74.56c3.008-20.4 4.744-41.8 4.744-64s-1.736-43.6-4.744-64h74.56C460.4 212.2 464 233.7 464 256zM256 464c-32.23 0-66.98-43.18-84.49-112h168.1C322.1 420.8 288.2 464 256 464zM164.9 320C161.8 300.1 160 278.7 160 256s1.754-44.14 4.875-64h182.3c3.121 19.86 4.875 41.28 4.875 64s-1.754 44.14-4.875 64H164.9zM48 256c0-22.34 3.633-43.82 10.18-64h74.56c-3.008 20.4-4.744 41.8-4.744 64s1.736 43.6 4.744 64H58.18C51.63 299.8 48 278.3 48 256zM256 48c32.23 0 66.98 43.18 84.49 112H171.5C189 91.18 223.8 48 256 48zM440.3 160H373.3c-9.131-39.15-23.7-72.71-41.88-97.64C378.4 80.73 417.1 115.6 440.3 160zM180.6 62.36C162.4 87.29 147.9 120.8 138.7 160H71.66C94.87 115.6 133.6 80.73 180.6 62.36zM71.66 352H138.7c9.131 39.15 23.7 72.71 41.88 97.64C133.6 431.3 94.87 396.4 71.66 352zM331.4 449.6C349.6 424.7 364.1 391.2 373.3 352h67.06C417.1 396.4 378.4 431.3 331.4 449.6z"/></svg>

<svg xmlns="http://www.w3.org/2000/svg" viewBox="0 0 512 512"><!-- Font Awesome Pro 6.0.0-alpha2 by @fontawesome - https://fontawesome.com License - https://fontawesome.com/license (Commercial License) --><path d="M256 16C123.451 16 16 123.451 16 256S123.451 496 256 496S496 388.549 496 256S388.549 16 256 16ZM464 256C464 278.336 460.367 299.816 453.82 320H379.256C382.264 299.596 384 278.199 384 256S382.264 212.404 379.256 192H453.82C460.367 212.184 464 233.664 464 256ZM256 464C223.77 464 189.018 420.82 171.51 352H340.49C322.982 420.82 288.23 464 256 464ZM164.875 320C161.754 300.143 160 278.719 160 256S161.754 211.857 164.875 192H347.125C350.246 211.857 352 233.281 352 256S350.246 300.143 347.125 320H164.875ZM48 256C48 233.664 51.633 212.184 58.18 192H132.744C129.736 212.404 128 233.801 128 256S129.736 299.596 132.744 320H58.18C51.633 299.816 48 278.336 48 256ZM256 48C288.23 48 322.982 91.18 340.49 160H171.51C189.018 91.18 223.77 48 256 48ZM440.338 160H373.279C364.148 120.846 349.576 87.291 331.396 62.359C378.412 80.734 417.135 115.627 440.338 160ZM180.604 62.359C162.424 87.291 147.852 120.846 138.721 160H71.662C94.865 115.627 133.588 80.734 180.604 62.359ZM71.662 352H138.721C147.852 391.154 162.424 424.709 180.604 449.641C133.588 431.266 94.865 396.373 71.662 352ZM331.396 449.641C349.576 424.709 364.148 391.154 373.279 352H440.338C417.135 396.373 378.412 431.266 331.396 449.641Z"/></svg>
